thumbs-up-down.svg

<svg fill="currentColor" viewBox="0 0 24 24"><path d="M22.5 10h-6.75c-.62 0-1.15.38-1.38.91l-2.26 5.29c-.07.17-.11.36-.11.55V18a1 1 0 0 0 1 1h5.18l-.68 3.18v.24c0 .31.13.58.33.8l.79.78 4.94-4.94c.27-.27.44-.65.44-1.06v-6.5a1.5 1.5 0 0 0-1.5-1.5M12 6a1 1 0 0 0-1-1H5.82l.68-3.18v-.23c0-.31-.13-.59-.33-.8L5.38 0 .44 4.94C.17 5.21 0 5.59 0 6v6.5A1.5 1.5 0 0 0 1.5 14h6.75c.62 0 1.15-.38 1.38-.91l2.26-5.29c.07-.17.11-.36.11-.55z"/></svg>

<svg  viewBox="0 0 24 24" fill="currentColor"><path  d="M22.5,10H15.75C15.13,10 14.6,10.38 14.37,10.91L12.11,16.2C12.04,16.37 12,16.56 12,16.75V18A1,1 0 0,0 13,19H18.18L17.5,22.18V22.42C17.5,22.73 17.63,23 17.83,23.22L18.62,24L23.56,19.06C23.83,18.79 24,18.41 24,18V11.5A1.5,1.5 0 0,0 22.5,10M12,6A1,1 0 0,0 11,5H5.82L6.5,1.82V1.59C6.5,1.28 6.37,1 6.17,0.79L5.38,0L0.44,4.94C0.17,5.21 0,5.59 0,6V12.5A1.5,1.5 0 0,0 1.5,14H8.25C8.87,14 9.4,13.62 9.63,13.09L11.89,7.8C11.96,7.63 12,7.44 12,7.25V6Z"/></svg>
